img/manaSymbols/majp/majpg.svg

﻿<?xml version="1.0" encoding="utf-8"?>
<svg width="714" height="714" viewBox="0 0 714 714" version="1.1" xmlns="http://www.w3.org/2000/svg" xml:space="preserve" style="fill-rule: evenodd; clip-rule: evenodd; stroke-linejoin: round; stroke-miterlimit: 2;" preserveAspectRatio="xMidYMid meet" zoomAndPan="magnify" contentScriptType="application/ecmascript" contentStyleType="text/css">
  <g transform="matrix(1,0,0,1,57,57)">
    <circle cx="300" cy="300" r="300" style="fill: rgb(235, 232, 219);" />
    <path d="M300-57C102.966-57-57 102.966-57 300s159.966 357 357 357 357-159.966 357-357S497.034-57 300-57zm0 57c165.575 0 300 134.425 300 300S465.575 600 300 600 0 465.575 0 300 134.425 0 300 0z" style="fill: rgb(14, 66, 22);" />
  </g>
  <path d="M562.6 337.4c0 10-3.9 19-11.6 27-7.7 8-16.6 12-26.6 12-16 0-27.7-7.5-35.2-22.5l-35.2-1.5c-7.5 0-22.3 3.3-44.2 9.8-23.5 6.5-37 11.7-40.5 15.7-5.5 6-10 20-13.5 42-3 18-4.5 31.2-4.5 39.7 0 13.5 2.1 23.4 6.4 29.6 4.3 6.2 13 11.5 26.2 15.7 13.2 4.2 21.4 6.6 24.4 7.1 2 0 5.2-.2 9.8-.7h9c6.5 0 13.2 1 20.2 3 10 3 14.3 7 12.8 12-7-1-19.2.5-36.7 4.5l21 10.5c0 6-8.5 9-25.5 9-4.5 0-10.6-1-18.4-3-7.7-2-12.9-3-15.4-3h-9.7c-.5 5-2 12.5-4.5 22.5-8.5-.5-18.5-5.5-30-15s-18.7-14.2-21.7-14.2-7.3 4.8-12.7 14.2c-5.5 9.5-8.2 16-8.2 19.5-6.5-3.5-12-10-16.5-19.5-2-6.5-4.2-13-6.7-19.5-5 .5-14.2 11-27.7 31.5h-3.8c-1-1.5-4.8-12-11.2-31.5-15.5-5-30-7.5-43.5-7.5-6.5 0-16.5 1.5-30 4.5l-21-1.5c3-3 11.7-8.7 26.2-17.2 17-10 30-15 39-15 1.5 0 3.5.3 6 .8s4.5.8 6 .8c3.5 0 9.1-1.9 16.9-5.6 7.7-3.7 12.2-7.1 13.5-10.1 1.3-3 1.9-10.8 1.9-23.2 0-28.5-7.5-49.7-22.5-63.7-13-12.5-34.5-21.5-64.5-27-8 28.5-30.5 42.7-67.4 42.7-12 0-24-7.2-36-21.7-12.3-14.8-18.3-28-18.3-40 0-18.5 7.7-33.7 23.2-45.7-12.5-13-18.7-26.2-18.7-39.7 0-12.5 3.9-23.5 11.6-33 7.7-9.5 17.9-15 30.4-16.5-1-16 4.2-27 15.7-33-5.5-5.5-8.2-15.2-8.2-29.2 0-16.5 5.5-30.2 16.5-41.2s24.7-16.5 41.2-16.5c18 0 32.7 6.3 44.2 18.8 14.5-49.5 45.7-74.2 93.7-74.2 25 0 47 10 66 30 7 7.5 10.5 11.5 10.5 12-6 0-3-1.1 9-3.4 12-2.2 20.7-3.4 26.2-3.4 19.5 0 36.7 7.2 51.7 21.7 13 13 22 29.5 27 49.5 3.5.5 9 2 16.5 4.5 11 5.5 16.5 15 16.5 28.5 0 2.5-2 7.3-6 14.2 32 18 48 43 48 75 0 9-3.5 21.5-10.5 37.5 13 7.5 19.5 18.5 19.5 33m-308.8 33v-9.7c0-11.5-5.6-22-16.9-31.5-11.2-9.5-22.6-14.2-34.1-14.2-14 0-27 3.2-39 9.7 26.5-1.5 56.5 13.8 89.9 45.7m-13.5-92.9c-7.5-8.5-14-17.2-19.5-26.2-21 5.5-31.5 11.7-31.5 18.7 6-.5 14.7.6 26.2 3.4 11.5 2.8 19.7 4.1 24.8 4.1m45.7-23.2v-33c-12-2-19.3-3-21.7-3v11.2l21.7 24.7m97.4-21c-6-2.5-17.2-7.5-33.7-15v64.5c23.5-13.5 34.7-30 33.7-49.5m41.2 88.5-16.5-20.2c-10 7-20.1 14.1-30.4 21.4-10.3 7.2-19.1 15.4-26.6 24.4 22.5-12 47-20.5 73.4-25.5" style="fill: rgb(14, 66, 22); fill-rule: nonzero;" transform="matrix(1,0,0,1,57,57)" />
</svg>

<?xml version="1.0" encoding="UTF-8" standalone="no"?>
<!DOCTYPE svg PUBLIC "-//W3C//DTD SVG 1.1//EN" "http://www.w3.org/Graphics/SVG/1.1/DTD/svg11.dtd">
<svg width="714" height="714" viewBox="0 0 714 714" version="1.1" xmlns="http://www.w3.org/2000/svg" xmlns:xlink="http://www.w3.org/1999/xlink" xml:space="preserve" xmlns:serif="http://www.serif.com/" style="fill-rule:evenodd;clip-rule:evenodd;stroke-linejoin:round;stroke-miterlimit:2;">
    <g transform="matrix(1,0,0,1,57,57)">
        <circle cx="300" cy="300" r="300" style="fill:rgb(235,232,219);"/>
        <path d="M300,-57C102.966,-57 -57,102.966 -57,300C-57,497.034 102.966,657 300,657C497.034,657 657,497.034 657,300C657,102.966 497.034,-57 300,-57ZM300,0C465.575,0 600,134.425 600,300C600,465.575 465.575,600 300,600C134.425,600 0,465.575 0,300C0,134.425 134.425,0 300,0Z" style="fill:rgb(14,66,22);"/>
    </g>
    <g transform="matrix(1,0,0,1,57,57)">
        <path d="M562.6,337.4C562.6,347.4 558.7,356.4 551,364.4C543.3,372.4 534.4,376.4 524.4,376.4C508.4,376.4 496.7,368.9 489.2,353.9L454,352.4C446.5,352.4 431.7,355.7 409.8,362.2C386.3,368.7 372.8,373.9 369.3,377.9C363.8,383.9 359.3,397.9 355.8,419.9C352.8,437.9 351.3,451.1 351.3,459.6C351.3,473.1 353.4,483 357.7,489.2C362,495.4 370.7,500.7 383.9,504.9C397.1,509.1 405.3,511.5 408.3,512C410.3,512 413.5,511.8 418.1,511.3L427.1,511.3C433.6,511.3 440.3,512.3 447.3,514.3C457.3,517.3 461.6,521.3 460.1,526.3C453.1,525.3 440.9,526.8 423.4,530.8L444.4,541.3C444.4,547.3 435.9,550.3 418.9,550.3C414.4,550.3 408.3,549.3 400.5,547.3C392.8,545.3 387.6,544.3 385.1,544.3L375.4,544.3C374.9,549.3 373.4,556.8 370.9,566.8C362.4,566.3 352.4,561.3 340.9,551.8C329.4,542.3 322.2,537.6 319.2,537.6C316.2,537.6 311.9,542.4 306.5,551.8C301,561.3 298.3,567.8 298.3,571.3C291.8,567.8 286.3,561.3 281.8,551.8C279.8,545.3 277.6,538.8 275.1,532.3C270.1,532.8 260.9,543.3 247.4,563.8L243.6,563.8C242.6,562.3 238.8,551.8 232.4,532.3C216.9,527.3 202.4,524.8 188.9,524.8C182.4,524.8 172.4,526.3 158.9,529.3L137.9,527.8C140.9,524.8 149.6,519.1 164.1,510.6C181.1,500.6 194.1,495.6 203.1,495.6C204.6,495.6 206.6,495.9 209.1,496.4C211.6,496.9 213.6,497.2 215.1,497.2C218.6,497.2 224.2,495.3 232,491.6C239.7,487.9 244.2,484.5 245.5,481.5C246.8,478.5 247.4,470.7 247.4,458.3C247.4,429.8 239.9,408.6 224.9,394.6C211.9,382.1 190.4,373.1 160.4,367.6C152.4,396.1 129.9,410.3 93,410.3C81,410.3 69,403.1 57,388.6C44.7,373.8 38.7,360.6 38.7,348.6C38.7,330.1 46.4,314.9 61.9,302.9C49.4,289.9 43.2,276.7 43.2,263.2C43.2,250.7 47.1,239.7 54.8,230.2C62.5,220.7 72.7,215.2 85.2,213.7C84.2,197.7 89.4,186.7 100.9,180.7C95.4,175.2 92.7,165.5 92.7,151.5C92.7,135 98.2,121.3 109.2,110.3C120.2,99.3 133.9,93.8 150.4,93.8C168.4,93.8 183.1,100.1 194.6,112.6C209.1,63.1 240.3,38.4 288.3,38.4C313.3,38.4 335.3,48.4 354.3,68.4C361.3,75.9 364.8,79.9 364.8,80.4C358.8,80.4 361.8,79.3 373.8,77C385.8,74.8 394.5,73.6 400,73.6C419.5,73.6 436.7,80.8 451.7,95.3C464.7,108.3 473.7,124.8 478.7,144.8C482.2,145.3 487.7,146.8 495.2,149.3C506.2,154.8 511.7,164.3 511.7,177.8C511.7,180.3 509.7,185.1 505.7,192C537.7,210 553.7,235 553.7,267C553.7,276 550.2,288.5 543.2,304.5C556.2,312 562.7,323 562.7,337.5M253.9,370.5L253.9,360.8C253.9,349.3 248.3,338.8 237,329.3C225.8,319.8 214.4,315.1 202.9,315.1C188.9,315.1 175.9,318.3 163.9,324.8C190.4,323.3 220.4,338.6 253.8,370.5M240.3,277.6C232.8,269.1 226.3,260.4 220.8,251.4C199.8,256.9 189.3,263.1 189.3,270.1C195.3,269.6 204,270.7 215.5,273.5C227,276.3 235.2,277.6 240.3,277.6M286,254.4L286,221.4C274,219.4 266.7,218.4 264.3,218.4L264.3,229.6L286,254.3M383.4,233.3C377.4,230.8 366.2,225.8 349.7,218.3L349.7,282.8C373.2,269.3 384.4,252.8 383.4,233.3M424.6,321.8L408.1,301.6C398.1,308.6 388,315.7 377.7,323C367.4,330.2 358.6,338.4 351.1,347.4C373.6,335.4 398.1,326.9 424.5,321.9" style="fill:rgb(14,66,22);fill-rule:nonzero;"/>
    </g>
</svg>
